app/images/hand-main.svg

<svg version="1.1" id="Слой_1" xmlns="http://www.w3.org/2000/svg" x="0" y="0" viewBox="0 0 595.3 841.9" xml:space="preserve"><style>.st0{fill:#8a95f5;stroke:#000;stroke-miterlimit:10}</style><path class="st0" d="M189.3 216.1h16.6v241.4h-16.6V216.1zm65.4 0h16.6v200.3h-16.6V216.1zm-48.9-17.2h48.8v17.2h-48.8v-17.2z"/><path class="st0" d="M271 293.9h40.5v15.8H271v-15.8z"/><path class="st0" d="M309 308.9h51.2v16.5H309v-16.5zm54.6 15.8h41.5V342h-41.5v-17.3z"/><path class="st0" d="M309.1 323.3h16.6v81.3h-16.6v-81.3zm79.4 193h16.6v81.3h-16.6v-81.3zm-28.3-190.8h16.6v114.9h-16.6V325.5zm44.9 15.8h16.6v17.2h-16.6v-17.2zM119 423.2h16.6v17.2H119v-17.2zm302.7-63.9h16.6V478h-16.6V359.3zm-16.6 119.4h16.6v37.6h-16.6v-37.6zm-219.8 74.5h16.6v44.5h-16.6v-44.5zm-49.7-112.8h16.6V478h-16.6v-37.6zm16.6 37.6h16.6v37.6h-16.6V478zm16.5 37.6h16.6v37.6h-16.6v-37.6zm-9.3-134.5h29.9v17.2h-29.9v-17.2zM103 363.9h56.4v17.2H103v-17.2z"/><path class="st0" d="M102.4 379.5H119v43.7h-16.6v-43.7zm100.2 200.8h185.3v17.2H202.6v-17.2z"/></svg>

<?xml version="1.0" encoding="utf-8"?>
<!-- Generator: Adobe Illustrator 23.1.0, SVG Export Plug-In . SVG Version: 6.00 Build 0)  -->
<svg version="1.1" id="Слой_1" xmlns="http://www.w3.org/2000/svg" xmlns:xlink="http://www.w3.org/1999/xlink" x="0px" y="0px"
	 viewBox="0 0 595.3 841.9" style="enable-background:new 0 0 595.3 841.9;" xml:space="preserve">
<style type="text/css">
	.st0{fill:#8A95F5;stroke:#000000;stroke-miterlimit:10;}
</style>
<g>
	<path class="st0" d="M189.3,216.1h16.6v241.4h-16.6V216.1z M254.7,216.1h16.6v200.3h-16.6L254.7,216.1z M205.8,198.9h48.8v17.2
		h-48.8V198.9z"/>
	<path class="st0" d="M271,293.9h40.5v15.8H271V293.9z"/>
	<path class="st0" d="M309,308.9h51.2v16.5H309V308.9z M363.6,324.7h41.5V342h-41.5V324.7z"/>
	<path class="st0" d="M309.1,323.3h16.6v81.3h-16.6V323.3z M388.5,516.3h16.6v81.3h-16.6V516.3z M360.2,325.5h16.6v114.9h-16.6
		V325.5z M405.1,341.3h16.6v17.2h-16.6V341.3z M119,423.2h16.6v17.2H119V423.2z M421.7,359.3h16.6V478h-16.6V359.3z M405.1,478.7
		h16.6v37.6h-16.6V478.7z M185.3,553.2h16.6v44.5h-16.6V553.2z M135.6,440.4h16.6V478h-16.6V440.4z"/>
	<path class="st0" d="M152.2,478h16.6v37.6h-16.6V478z M168.7,515.6h16.6v37.6h-16.6V515.6z M159.4,381.1h29.9v17.2h-29.9V381.1z"/>
	<path class="st0" d="M103,363.9h56.4v17.2H103V363.9z"/>
	<path class="st0" d="M102.4,379.5H119v43.7h-16.6V379.5z M202.6,580.3h185.3v17.2H202.6V580.3z"/>
</g>
</svg>
